!!!COM:	Hindemith
!!!OTL:	669B_Hin-82/21/7-1[I]
**kern	**kern	**kern	**kern	**kern	**kern	**kern	**kern	**kern	**kern	**kern	**kern	**kern	**kern	**kern	**kern	**kern	**kern	**kern	**kern	**kern	**kern	**kern	**kern	**kern	**kern	**kern
*part27	*part26	*part25	*part24	*part23	*part22	*part21	*part20	*part19	*part18	*part17	*part16	*part15	*part14	*part13	*part12	*part11	*part10	*part9	*part8	*part7	*part6	*part5	*part4	*part3	*part2	*part1
*staff27	*staff26	*staff25	*staff24	*staff23	*staff22	*staff21	*staff20	*staff19	*staff18	*staff17	*staff16	*staff15	*staff14	*staff13	*staff12	*staff11	*staff10	*staff9	*staff8	*staff7	*staff6	*staff5	*staff4	*staff3	*staff2	*staff1
*I"Double Bass	*I"Violoncello	*I"Viola	*I"Violin II	*I"Violin I	*I"Bass Drum	*I"Snare Drum	*I"Glockenspiel	*I"Timpani	*I"Tuba	*I"Trombone	*I"Trombone	*I"Trombone	*I"Trumpet in Bb	*I"Trumpet in Bb	*I"Horn in F	*I"Horn in F	*I"Horn in F	*I"Horn in F	*I"Contrabassoon	*I"Bassoon	*I"Bass Clarinet in Bb	*I"Clarinet in Bb	*I"Cor Anglais	*I"Oboe	*I"Flute	*I"Piccolo
*I'Db.	*I'Vc.	*I'Vla.	*I'Vln. II	*I'Vln. I	*I'B. D.	*I'S. D.	*I'Glock.	*I'Timp.	*I'Tba.	*I'Tbn.	*I'Tbn.	*I'Tbn.	*I'Tpt.	*I'Tpt.	*I'Hn.	*I'Hn.	*I'Hn.	*I'Hn.	*I'Cbsn.	*I'Bsn.	*I'B. Cl.	*I'Cl.	*I'C. A.	*I'Ob.	*I'Fl.	*I'Picc.
*clefF4	*clefF4	*clefG2	*clefG2	*clefG2	*clefpercussion0	*clefpercussion0	*clefG2	*clefF4	*clefF4	*clefF4	*clefF4	*clefF4	*clefG2	*clefG2	*clefG2	*clefG2	*clefG2	*clefG2	*clefF4	*clefF4	*clefG2	*clefG2	*clefG2	*clefG2	*clefG2	*clefG2
*k[]	*k[]	*k[]	*k[]	*k[]	*	*	*k[]	*	*k[]	*k[]	*k[]	*k[]	*k[]	*k[]	*	*	*	*	*k[]	*k[]	*k[]	*k[]	*k[]	*k[]	*k[]	*k[]
*	*	*	*	*	*	*	*	*	*	*	*	*	*	*	*	*	*	*	*	*	*	*	*	*	*	*
*M2/4	*M2/4	*M2/4	*M2/4	*M2/4	*M2/4	*M2/4	*M2/4	*M2/4	*M2/4	*M2/4	*M2/4	*M2/4	*M2/4	*M2/4	*M2/4	*M2/4	*M2/4	*M2/4	*M2/4	*M2/4	*M2/4	*M2/4	*M2/4	*M2/4	*M2/4	*M2/4
=1	=	=	=	=	=	=	=	=	=	=	=	=	=	=	=	=	=	=	=	=	=	=	=	=	=	=
[2DDD	[2DD	16ggLL	16ggLL	16gggLL	4r	8x	8r	8r	8FFL	8CL	8FL	8AL	2r	8a	4r	8fL	8cL	8aL	[2DDD	[2DD	[2DD	8ffL	8ffL	8ffL	8fffL	8ffffL
.	.	16ff	16ff	16fff	.	.	.	.	.	.	.	.	.	.	.	.	.	.	.	.	.	.	.	.	.	.
.	.	16ee	16ee	16eee	.	8r	8dddd	8GG	8GGJ	8GGJ	8DJ	8GJ	.	8r	.	8dJ	8B-XJ	8gJ	.	.	.	16eeL	16eeL	16eeL	16eeeL	16eeeeL
.	.	16ddJJ	16ddJJ	16dddJJ	.	.	.	.	.	.	.	.	.	.	.	.	.	.	.	.	.	16ddJJ	16ddJJ	16ddJJ	16dddJJ	16ddddJJ
.	.	.	.	.	.	(8qx\	.	.	.	.	.	.	.	.	.	.	.	.	.	.	.	.	.	.	.	.
.	.	16cc#XLL	16cc#XLL	16ccc#XLL	8r	8x)	4cccc#X	8r	8AAL	8AAL	8DL	8AL	.	4r	8r	8c#XL	8AL	8f#XL	.	.	.	(4cc#X	(4cc#X	(4cc#X	(4ccc#X	(4cccc#X
.	.	16a#X	16a#X	16aa#X	.	.	.	.	.	.	.	.	.	.	.	.	.	.	.	.	.	.	.	.	.	.
.	.	16b	16b	16bb	8x	8r	.	8GG	16BB-XL	16BB-XL	16DL	16B-XL	.	.	8B-X	16fnL	16c#XL	16b-XL	.	.	.	.	.	.	.	.
.	.	16cc#JJ	16cc#JJ	16ccc#JJ	.	.	.	.	16BB-JJ	16BB-JJ	16DJJ	16B-JJ	.	.	.	16fJJ	16c#JJ	16b-JJ	.	.	.	.	.	.	.	.
=2	=2	=2	=2	=2	=2	=2	=2	=2	=2	=2	=2	=2	=2	=2	=2	=2	=2	=2	=2	=2	=2	=2	=2	=2	=2	=2
.	.	.	.	.	.	(8qx\	.	.	.	.	.	.	.	.	.	.	.	.	.	.	.	.	.	.	.	.
2DDD_	2DD_	16ddLL	16ddLL	16dddLL	2r	8xL)	8ddddL	4r	8AA	8AAL	8DL	8AL	8r	8r	8d	8f#XL	8d	8aL	2DDD_	2DD_	2DD_	8ddL)	8ddL)	8ddL)	8dddL)	8ddddL)
.	.	16f#X	16f#X	16ff#X	.	.	.	.	.	.	.	.	.	.	.	.	.	.	.	.	.	.	.	.	.	.
.	.	16g	16g	16gg	.	8xJ	8aaaJ	.	8r	8FJ	8AJ	8cJ	8cc	8ee-X	8r	8fnJ	8r	8aJ	.	.	.	8aJ 8aa	8aJ	8aJ	8aaJ	8aaaJ
.	.	16anJJ	16anJJ	16aaJJ	.	.	.	.	.	.	.	.	.	.	.	.	.	.	.	.	.	.	.	.	.	.
*	*	*	*	*8va	*	*	*	*	*	*	*	*	*	*	*	*	*	*	*	*	*	*	*	*	*	*
.	.	16b-XLL	16b-XLL	16bb-XLL	.	8r	4bbb-X	8AA	8r	16E-XLL	16GLL	16B-XLL	16b-XLL	16dd-XLL	8r	16e-XLL	8r	16gLL	.	.	.	[4b-X [4bb-X	[4b-X	[4b-X	[4bb-X	[4bbb-X
.	.	16ee-X	16ee-X	16eee-X	.	.	.	.	.	16E-J	16GJ	16B-J	16b-J	16dd-XJ	.	16e-J	.	16gJ	.	.	.	.	.	.	.	.
.	.	.	.	.	.	(8qx\	.	.	.	.	.	.	.	.	.	.	.	.	.	.	.	.	.	.	.	.
.	.	16een	16een	16eeen	.	8x)	.	8r	8AA	8DJ	8F#XJ	8AJ	8aJ	8ccJ	8A	8dJ	8d	8f#XJ	.	.	.	.	.	.	.	.
.	.	16ff#XJJ	16ff#XJJ	16fff#XJJ	.	.	.	.	.	.	.	.	.	.	.	.	.	.	.	.	.	.	.	.	.	.
=3	=3	=3	=3	=3	=3	=3	=3	=3	=3	=3	=3	=3	=3	=3	=3	=3	=3	=3	=3	=3	=3	=3	=3	=3	=3	=3
2DDD_	2DD_	16ggLL	16ggLL	16gggLL	8x	8r	8r	8AA	8C	8CL	8EL	8G	8gL	8b-XL	8c	8cL	8e	8eL	2DDD_	2DD_	2DD_	8b-L] 8bb-]	8b-L]	8b-L]	8bb-L]	8bbb-L]
.	.	16bb-X	16bb-X	16bbb-X	.	.	.	.	.	.	.	.	.	.	.	.	.	.	.	.	.	.	.	.	.	.
.	.	.	.	.	.	(8qx\	.	.	.	.	.	.	.	.	.	.	.	.	.	.	.	.	.	.	.	.
.	.	16aa	16aa	16aaa	8r	8x)	8aaa	8r	8r	8BB-XJ	8BB-XJ	8r	8B-XJ	8b-J	8r	8gJ	8r	8gJ	.	.	.	16aL 16aa	16aL	16aL	16aaL	16aaaL
.	.	16ggJJ	16ggJJ	16gggJJ	.	.	.	.	.	.	.	.	.	.	.	.	.	.	.	.	.	16gJJ 16gg	16gJJ	16gJJ	16ggJJ	16gggJJ
.	.	16ffLL	16ffLL	16fffLL	4r	8x	8fffL	8r	4r	8AA-XL	8AA-XL	4r	8B-L	8b-L	4r	8fL	4r	8fnL	.	.	.	(8fL 8ff	(8fL	(8fL	(8ffL	(8fffL
.	.	16dd	16dd	16ddd	.	.	.	.	.	.	.	.	.	.	.	.	.	.	.	.	.	.	.	.	.	.
.	.	16ee	16ee	16eee	.	8r	8eeeJ	8GG	.	8GGJ	8GGJ	.	16B-L	16b-L	.	16eL	.	16eL	.	.	.	8eJ) 8ee	8eJ)	8eJ)	8eeJ)	8eeeJ)
.	.	16ccJJ	16ccJJ	16cccJJ	.	.	.	.	.	.	.	.	16B-JJ	16b-JJ	.	16eJJ	.	16eJJ	.	.	.	.	.	.	.	.
=4	=4	=4	=4	=4	=4	=4	=4	=4	=4	=4	=4	=4	=4	=4	=4	=4	=4	=4	=4	=4	=4	=4	=4	=4	=4	=4
.	.	.	.	.	.	(8qx\	.	.	.	.	.	.	.	.	.	.	.	.	.	.	.	.	.	.	.	.
2DDD_	2DD_	16ffLL	16ffLL	16fffLL	8r	8x)	8fffL	8r	4r	8GL	8GL	2r	8B-XL	8b-XL	8r	8dL	8r	8dL	2DDD_	2DD_	2DD_	8fL 8ff	8fL	8fL	8ffL	8fffL
.	.	16a	16a	16aa	.	.	.	.	.	.	.	.	.	.	.	.	.	.	.	.	.	.	.	.	.	.
.	.	16b-X	16b-X	16bb-X	8x	8r	8dddJ	8D	.	8FJ	8FJ	.	8B-J	8b-J	8B-X	8dJ	8B-X	8dJ	.	.	.	16dL 16dd	16dL	16dL	16ddL	16dddL
.	.	16ccJJ	16ccJJ	16cccJJ	.	.	.	.	.	.	.	.	.	.	.	.	.	.	.	.	.	16eJJ 16ee	16eJJ	16eJJ	16eeJJ	16eeeJJ
.	.	.	.	.	.	(8qx\	.	.	.	.	.	.	.	.	.	.	.	.	.	.	.	.	.	.	.	.
.	.	16ddLL	16ddLL	16dddLL	4r	8xL)	8fffL	4r	8r	16E-XLL	16E-XLL	.	8B-L	8b-L	8cL	8e-XL	8cL	8e-XL	.	.	.	(8fL 8ff	(8fL	(8fL	(8ffL	(8fffL
.	.	16ee-X	16ee-X	16eee-X	.	.	.	.	.	16DJ	16DJ	.	.	.	.	.	.	.	.	.	.	.	.	.	.	.
.	.	16ff	16ff	16fff	.	8xJ	8gggJ	.	8C	8CJ	8CJ	.	8B-J	8b-J	8dJ	8fJ	8dJ	8fJ	.	.	.	8gJ) 8gg	8gJ)	8gJ)	8ggJ)	8gggJ)
.	.	16ggJJ	16ggJJ	16gggJJ	.	.	.	.	.	.	.	.	.	.	.	.	.	.	.	.	.	.	.	.	.	.
=5	=5	=5	=5	=5	=5	=5	=5	=5	=5	=5	=5	=5	=5	=5	=5	=5	=5	=5	=5	=5	=5	=5	=5	=5	=5	=5
2DDD_	2DD_	(16aaLL	(16aaLL	(16aaaLL	4r	8r	8aaaL	8GG	8BBL	8BBnL	8F#XL	8AL	8e-X	8a	8d#XL	8f#XL	8d#XL	8f#XL	2DDD_	2DD_	2DD_	8aL 8aa	8aL	8aL	8aaL	8aaaL
.	.	16gg)	16gg)	16ggg)	.	.	.	.	.	.	.	.	.	.	.	.	.	.	.	.	.	.	.	.	.	.
.	.	.	.	.	.	(8qx\	.	.	.	.	.	.	.	.	.	.	.	.	.	.	.	.	.	.	.	.
.	.	16aa	16aa	16aaa	.	8x)	8bbbJ	8r	8AAJ	8AAJ	16EL	16GL	8r	8r	16c#XL	16gL	16eL	16aL	.	.	.	8bJ	8bJ	8bJ	8bbJ	8bbbJ
.	.	16bbnJJ	16bbnJJ	16bbbnJJ	.	.	.	.	.	.	16EJJ	16GJJ	.	.	16c#JJ	16gJJ	16eJJ	16aJJ	.	.	.	.	.	.	.	.
.	.	8ccc#XL	8ccc#XL	8cccc#XL	8x	8r	4cccc	8C	8GG#XL	8GG#XL	8D#XL	8F#XL	4r	4r	8cnL	8f#L	8e-XL	8aL	.	.	.	[4cc	[4cc	[4cc	[4ccc	[4cccc
.	.	.	.	.	.	(8qx\	.	.	.	.	.	.	.	.	.	.	.	.	.	.	.	.	.	.	.	.
*	*	*	*	*X8va	*	*	*	*	*	*	*	*	*	*	*	*	*	*	*	*	*	*	*	*	*	*
.	.	16f#XL	16f#XL	16ff#XL	8r	8x)	.	8r	8FF#XJ	8FF#XJ	16C#XL	16EL	.	.	16B-XL	16eL	16d-XL	16aL	.	.	.	.	.	.	.	.
.	.	16g#XJJ	16g#XJJ	16gg#XJJ	.	.	.	.	.	.	16C#JJ	16EJJ	.	.	16B-JJ	16eJJ	16d-JJ	16aJJ	.	.	.	.	.	.	.	.
=6	=6	=6	=6	=6	=6	=6	=6	=6	=6	=6	=6	=6	=6	=6	=6	=6	=6	=6	=6	=6	=6	=6	=6	=6	=6	=6
2DDD_	2DD_	16aLL	16aLL	16aaLL	4r	8x	8r	8r	8FFnL	8FFnL	8Cn	8E-XL	8r	8aL	8AL	8e-XL	8cL	8aL	2DDD_	2DD_	2DD_	8ccL]	8ccL]	8ccL]	8cccL]	8ccccL]
.	.	16b	16b	16bb	.	.	.	.	.	.	.	.	.	.	.	.	.	.	.	.	.	.	.	.	.	.
.	.	16ccn	16ccn	16cccn	.	8r	8dddd	8D	8EEJ	8BBnJ	8r	8EnJ	8g#X	8bJ	8EJ	8dJ	8enJ	8bJ	.	.	.	8ddJ	8ddJ	8ddJ	8dddJ	8ddddJ
.	.	16ddJJ	16ddJJ	16dddJJ	.	.	.	.	.	.	.	.	.	.	.	.	.	.	.	.	.	.	.	.	.	.
.	.	.	.	.	.	(8qx\	.	.	.	.	.	.	.	.	.	.	.	.	.	.	.	.	.	.	.	.
.	.	16eeLL	16eeLL	16eeeLL	8r	8x)	4eeee	8r	8DDL	8AAL	8DL	8FnL	8aL	8ccL	8AL	8cL	8fL	8aL	.	.	.	[4ee	[4ee	[4ee	[4eee	[4eeee
.	.	16dd#X	16dd#X	16ddd#X	.	.	.	.	.	.	.	.	.	.	.	.	.	.	.	.	.	.	.	.	.	.
.	.	16ee	16ee	16eee	8x	8r	.	8D	8DJ	8DJ	8dJ	16GL	16bL	16ddL	16BnL	16dL	16fL	16aL	.	.	.	.	.	.	.	.
.	.	16ff#XJJ	16ff#XJJ	16fff#XJJ	.	.	.	.	.	.	.	16GJJ	16bJJ	16ddJJ	16BJJ	16dJJ	16fJJ	16aJJ	.	.	.	.	.	.	.	.
=7	=7	=7	=7	=7	=7	=7	=7	=7	=7	=7	=7	=7	=7	=7	=7	=7	=7	=7	=7	=7	=7	=7	=7	=7	=7	=7
.	.	.	.	.	.	(8qx\	.	.	.	.	.	.	.	.	.	.	.	.	.	.	.	.	.	.	.	.
*	*	*	*	*X8va	*	*	*	*	*	*	*	*	*	*	*	*	*	*	*	*	*	*	*	*	*	*
2DDD]	2DD]	16gg#XLL	16gg#XLL	16gg#XLL	2r	8xL)	8r	8r	8C#XL	8C#XL	8c#XL	8G#XL	8cc#XL	8eeL	8c#XL	8c#XL	8enL	8g#XL	2DDD]	2DD]	2DD]	8eeL]	8eeL]	8eeL]	8eeeL]	8eeeeL]
.	.	16dd#X	16dd#X	16dd#X	.	.	.	.	.	.	.	.	.	.	.	.	.	.	.	.	.	.	.	.	.	.
*	*	*	*	*	*	*	*	*	*	*	*	*	*	*	*	*	*	*	*	*	*	*	*	*	*X8va	*X8va
.	.	16ee	16ee	16ee	.	16xL	8aaaa	8D	16CnL	16CnL	16cnL	16cnL	16fnL	16eeL	16dL	16aL	16fL	16ddL	.	.	.	8aaJ	8aaJ	8aaJ	8aaJ	8aaaJ
.	.	16ff#XJJ	16ff#XJJ	16ff#XJJ	.	16xJJ	.	.	16BBJJ	16BBJJ	16BJJ	16BJJ	16fJJ	16eeJJ	16dJJ	16aJJ	16fJJ	16ddJJ	.	.	.	.	.	.	.	.
.	.	16aaLL	16aaLL	16aaLL	.	8xL	8aaaaL	8DL	8BB-XL	8BB-XL	8B-XL	8B-XL	8gL	8eeL	8cnL	8gL	8e-XL	8ccnL	.	.	.	(16aaLL	(16aaLL	(16aaLL	(16aaLL	(16aaaLL
.	.	16gg#	16gg#	16gg#	.	.	.	.	.	.	.	.	.	.	.	.	.	.	.	.	.	16gg#X	16gg#X	16gg#X	16gg#X	16ggg#X
.	.	16ff#	16ff#	16ff#	.	8xJ	8gggg#XJ	8DJ	8DJ	8DJ	8GJ	8G#J	8dJ	8eeJ	8B-XJ	8fnJ	8dJ	8b-XJ	.	.	.	16ff#X	16ff#X	16ff#X	16ff#X	16fff#X
.	.	16gg#JJ	16gg#JJ	16gg#JJ	.	.	.	.	.	.	.	.	.	.	.	.	.	.	.	.	.	16gg#JJ)	16gg#JJ)	16gg#JJ)	16gg#JJ)	16ggg#JJ)
==	==	==	==	==	==	==	==	==	==	==	==	==	==	==	==	==	==	==	==	==	==	==	==	==	==	==
*-	*-	*-	*-	*-	*-	*-	*-	*-	*-	*-	*-	*-	*-	*-	*-	*-	*-	*-	*-	*-	*-	*-	*-	*-	*-	*-
!!!system-decoration: [(s1,s2,s3,s4,s5,s6,s7,s8)][(s9,s10,s11,s12,s13,s14,s15,s16,s17,s18)][(s19)][(s20)][(s21,s22)][(s23,s24,s25,s26,s27)]
!!!ONB: Converted from MusicXML on 2020/01/17
